img/icon/bus-stop.svg

<svg width="20" height="20" viewBox="0 0 20 20" fill="none" xmlns="http://www.w3.org/2000/svg">
<rect x="9.09091" y="18.6003" width="1.81818" height="1.39971" fill="#3A3A49"/>
<path d="M19.396 9.395C19.396 14.5837 15.1898 18.79 10.001 18.79C4.81233 18.79 0.606049 14.5837 0.606049 9.395C0.606049 4.20628 4.81233 0 10.001 0C15.1898 0 19.396 4.20628 19.396 9.395Z" fill="#000099"/>
<path fill-rule="evenodd" clip-rule="evenodd" d="M10.001 16.79C14.0852 16.79 17.396 13.4791 17.396 9.395C17.396 5.31085 14.0852 2 10.001 2C5.9169 2 2.60605 5.31085 2.60605 9.395C2.60605 13.4791 5.9169 16.79 10.001 16.79ZM10.001 18.79C15.1898 18.79 19.396 14.5837 19.396 9.395C19.396 4.20628 15.1898 0 10.001 0C4.81233 0 0.606049 4.20628 0.606049 9.395C0.606049 14.5837 4.81233 18.79 10.001 18.79Z" fill="#737384"/>
<path d="M14.305 7.8294L13.9736 5.02234C13.922 4.68729 13.7078 4.39132 13.3899 4.21963C12.881 3.94482 11.7583 3.63636 9.9998 3.63636C8.24131 3.63636 7.11856 3.94482 6.60965 4.21963C6.29179 4.39132 6.07759 4.68729 6.02603 5.02234L5.69459 7.8294C5.67017 7.98824 5.65787 8.14853 5.65787 8.30882V11.9032C5.65787 11.9781 5.72408 12.0389 5.80585 12.0389H6.35113V12.7743C6.35113 13.0829 6.62395 13.3333 6.96045 13.3333H6.96605C7.30255 13.3333 7.57537 13.0831 7.57537 12.7743V12.0389H12.4246V12.7743C12.4246 13.0829 12.6974 13.3333 13.0339 13.3333H13.0395C13.376 13.3333 13.6488 13.0831 13.6488 12.7743V12.0389H14.1941C14.2759 12.0389 14.3421 11.9781 14.3421 11.9032V8.30882C14.3421 8.14835 14.3298 7.98824 14.3054 7.8294H14.305ZM8.24529 4.47743H11.7543C11.907 4.47743 12.0307 4.60118 12.0307 4.75387C12.0307 4.90656 11.907 5.0303 11.7543 5.0303H8.24529C8.0926 5.0303 7.96886 4.90656 7.96886 4.75387C7.96886 4.60118 8.0926 4.47743 8.24529 4.47743ZM6.96316 10.8078C6.62214 10.8078 6.34552 10.5313 6.34552 10.1901C6.34552 9.84894 6.62196 9.5725 6.96316 9.5725C7.30436 9.5725 7.5808 9.84894 7.5808 10.1901C7.5808 10.5313 7.30436 10.8078 6.96316 10.8078ZM6.65579 8.31045C6.48844 8.31045 6.35981 8.16337 6.38098 7.99729C6.38243 7.98571 6.38405 7.97431 6.38568 7.96273L6.38695 7.95351L6.62431 5.76246C6.6395 5.62189 6.75837 5.51515 6.89984 5.51515H13.1001C13.2416 5.51515 13.3603 5.62171 13.3756 5.76246L13.613 7.95351L13.6143 7.96273C13.6159 7.97413 13.6173 7.98571 13.619 7.99729C13.64 8.16318 13.5115 8.31045 13.3442 8.31045H6.65579ZM13.0366 10.8078C12.6956 10.8078 12.419 10.5313 12.419 10.1901C12.419 9.84894 12.6954 9.5725 13.0366 9.5725C13.3778 9.5725 13.6543 9.84894 13.6543 10.1901C13.6543 10.5313 13.3778 10.8078 13.0366 10.8078Z" fill="white"/>
<path d="M0.769684 11.1092C1.57212 15.4777 5.39946 18.7878 9.99993 18.7878C14.6004 18.7878 18.4277 15.4777 19.2302 11.1092H16.75C15.9891 14.1286 13.2555 16.3636 9.99993 16.3636C6.74434 16.3636 4.01076 14.1286 3.24986 11.1092H0.769684Z" fill="#EC1C24"/>
</svg>

<svg xmlns="http://www.w3.org/2000/svg" width="20" height="20" fill="none"><path fill="#3A3A49" d="M9.091 18.6h1.818V20H9.091z"/><path fill="#009" d="M19.396 9.395a9.395 9.395 0 1 1-18.79 0 9.395 9.395 0 1 1 18.79 0Z"/><path fill="#737384" fill-rule="evenodd" d="M10.001 16.79a7.395 7.395 0 1 0 0-14.79 7.395 7.395 0 0 0 0 14.79Zm0 2a9.395 9.395 0 0 0 9.395-9.395 9.395 9.395 0 1 0-18.79 0 9.395 9.395 0 0 0 9.395 9.395Z" clip-rule="evenodd"/><path fill="#fff" d="m14.305 7.83-.331-2.808a1.112 1.112 0 0 0-.584-.802c-.509-.275-1.632-.584-3.39-.584-1.759 0-2.881.309-3.39.584a1.112 1.112 0 0 0-.584.802L5.695 7.83c-.025.16-.037.32-.037.48v3.594c0 .075.066.136.148.136h.545v.735c0 .309.273.56.61.56h.005c.337 0 .61-.25.61-.56v-.735h4.849v.735c0 .309.272.56.609.56h.005c.337 0 .61-.25.61-.56v-.735h.545c.082 0 .148-.06.148-.136V8.31c0-.16-.012-.32-.037-.48Zm-6.06-3.353h3.51a.276.276 0 1 1 0 .553h-3.51a.276.276 0 1 1 0-.553Zm-1.282 6.33a.618.618 0 1 1 0-1.235.618.618 0 0 1 0 1.236ZM6.656 8.31a.277.277 0 0 1-.275-.313l.005-.034v-.01l.238-2.19a.277.277 0 0 1 .276-.248h6.2c.142 0 .26.107.276.247l.237 2.192.001.009.005.034a.278.278 0 0 1-.275.313H6.656Zm6.38 2.498a.618.618 0 1 1 0-1.236.618.618 0 0 1 0 1.236Z"/><path fill="#EC1C24" d="M.77 11.11c.802 4.368 4.63 7.678 9.23 7.678 4.6 0 8.428-3.31 9.23-7.679h-2.48a6.964 6.964 0 0 1-13.5 0H.77Z"/></svg>
